scalable/apps/bluetooth.svg

<?xml version="1.0" encoding="UTF-8" standalone="no"?>
<!-- Generator: Adobe Illustrator 19.0.0, SVG Export Plug-In . SVG Version: 6.00 Build 0)  -->

<svg
   xmlns:dc="http://purl.org/dc/elements/1.1/"
   xmlns:cc="http://creativecommons.org/ns#"
   xmlns:rdf="http://www.w3.org/1999/02/22-rdf-syntax-ns#"
   xmlns:svg="http://www.w3.org/2000/svg"
   xmlns="http://www.w3.org/2000/svg"
   xmlns:xlink="http://www.w3.org/1999/xlink"
   xmlns:sodipodi="http://sodipodi.sourceforge.net/DTD/sodipodi-0.dtd"
   xmlns:inkscape="http://www.inkscape.org/namespaces/inkscape"
   version="1.1"
   id="Capa_1"
   x="0px"
   y="0px"
   viewBox="0 0 48 48"
   xml:space="preserve"
   sodipodi:docname="bluetooth.svg"
   width="48"
   height="48"
   inkscape:version="0.92.3 (2405546, 2018-03-11)"><metadata
   id="metadata41"><rdf:RDF><cc:Work
       rdf:about=""><dc:format>image/svg+xml</dc:format><dc:type
         rdf:resource="http://purl.org/dc/dcmitype/StillImage" /><dc:title /></cc:Work></rdf:RDF></metadata><defs
   id="defs39"><linearGradient
     inkscape:collect="always"
     id="linearGradient839"><stop
       style="stop-color:#000000;stop-opacity:1;"
       offset="0"
       id="stop835" /><stop
       style="stop-color:#000000;stop-opacity:0;"
       offset="1"
       id="stop837" /></linearGradient><linearGradient
     inkscape:collect="always"
     xlink:href="#linearGradient839"
     id="linearGradient870"
     gradientUnits="userSpaceOnUse"
     x1="17.411764"
     y1="8.8069916"
     x2="43.058823"
     y2="34.595226" /></defs><sodipodi:namedview
   pagecolor="#ffffff"
   bordercolor="#666666"
   borderopacity="1"
   objecttolerance="10"
   gridtolerance="10"
   guidetolerance="10"
   inkscape:pageopacity="0"
   inkscape:pageshadow="2"
   inkscape:window-width="1366"
   inkscape:window-height="719"
   id="namedview37"
   showgrid="false"
   showguides="true"
   inkscape:guide-bbox="true"
   inkscape:zoom="2.65625"
   inkscape:cx="24"
   inkscape:cy="24"
   inkscape:window-x="0"
   inkscape:window-y="25"
   inkscape:window-maximized="1"
   inkscape:current-layer="Capa_1" />


<g
   id="g6"
   transform="translate(0,-464)">
</g>
<g
   id="g8"
   transform="translate(0,-464)">
</g>
<g
   id="g10"
   transform="translate(0,-464)">
</g>
<g
   id="g12"
   transform="translate(0,-464)">
</g>
<g
   id="g14"
   transform="translate(0,-464)">
</g>
<g
   id="g16"
   transform="translate(0,-464)">
</g>
<g
   id="g18"
   transform="translate(0,-464)">
</g>
<g
   id="g20"
   transform="translate(0,-464)">
</g>
<g
   id="g22"
   transform="translate(0,-464)">
</g>
<g
   id="g24"
   transform="translate(0,-464)">
</g>
<g
   id="g26"
   transform="translate(0,-464)">
</g>
<g
   id="g28"
   transform="translate(0,-464)">
</g>
<g
   id="g30"
   transform="translate(0,-464)">
</g>
<g
   id="g32"
   transform="translate(0,-464)">
</g>
<g
   id="g34"
   transform="translate(0,-464)">
</g>
<g
   id="g882"><path
     id="path849"
     d="m 23.712891,0.49414062 c -5.833461,0 -10.522199,1.12037758 -13.9355472,3.33203128 -4.1011931,2.6574037 -6.2695313,6.9015131 -6.2695313,12.2714841 0,7.226706 5.8062658,16.88549 7.5859375,19.673828 2.031747,3.183081 4.250107,6.079782 6.246094,8.15625 2.542362,2.644283 4.56815,3.875 6.373047,3.875 1.804991,0 3.829009,-1.230625 6.371093,-3.875 1.995894,-2.076376 4.214348,-4.973077 6.246094,-8.15625 C 38.10975,32.983238 43.916016,23.324362 43.916016,16.097656 43.916108,10.727777 41.749814,6.4836678 37.648438,3.8261719 34.235274,1.6145182 29.546261,0.49414062 23.712891,0.49414062 Z"
     style="fill:#3d4970;stroke-width:0.0924025" /><path
     inkscape:connector-curvature="0"
     id="path833"
     d="m 29.257812,44.626953 c 0.28905,-0.275558 0.522882,-0.383724 0.826172,-0.699219 1.995894,-2.076376 4.214349,-4.973077 6.246094,-8.15625 0.889836,-1.394123 2.786912,-4.505286 4.460938,-8.171875 0.374506,-0.820275 0.641991,-1.719241 0.980468,-2.582031 L 23.765625,7.0117188 23.058594,22.964844 l -6.871094,6.68164 6.259766,6.259766 -0.457032,1.453125 z"
     style="fill:url(#linearGradient870);fill-opacity:1;stroke:none;stroke-width:1px;stroke-linecap:butt;stroke-linejoin:miter;stroke-opacity:1;opacity:0.6" /><path
     id="path847"
     d="M 21.990234 5.359375 L 21.990234 17.359375 L 16.990234 12.359375 L 14.990234 14.359375 L 21.990234 21.359375 L 14.990234 28.359375 L 16.990234 30.359375 L 21.990234 25.359375 L 21.990234 37.359375 L 31.990234 27.359375 L 25.990234 21.359375 L 31.990234 15.359375 L 21.990234 5.359375 z M 24.990234 12.359375 L 27.990234 15.359375 L 24.990234 18.359375 L 24.990234 12.359375 z M 24.990234 24.359375 L 27.990234 27.359375 L 24.990234 30.359375 L 24.990234 24.359375 z "
     style="fill:#ffffff;stroke-width:0.0924025" /><path
     inkscape:connector-curvature="0"
     id="path4588"
     d="m 23.712891,0.34960936 c -5.833461,0 -10.522199,1.12037834 -13.935547,3.33203134 -4.101193,2.657404 -6.269532,6.9015123 -6.269532,12.2714833 0,7.226706 5.806266,16.88549 7.585938,19.673828 2.031747,3.183082 4.250107,6.079783 6.246094,8.15625 2.542362,2.644284 4.56815,3.875 6.373047,3.875 1.804991,0 3.829009,-1.230625 6.371093,-3.875 1.995894,-2.076376 4.214348,-4.973077 6.246094,-8.15625 1.779671,-2.788246 7.585938,-12.447122 7.585938,-19.673826 9.2e-5,-5.36988 -2.166204,-9.6139892 -6.267578,-12.2714853 C 34.235274,1.4699877 29.54626,0.34960936 23.712891,0.34960936 Z m 0,0.14453126 c 2.112445,0.084873 4.119293,0.27168527 5.875,0.69140628 1.164035,0.2782756 2.252954,0.6269196 3.263671,1.0429688 1.010718,0.4160492 1.943585,0.9002116 2.796876,1.453125 1.025343,0.6643739 1.929139,1.4277032 2.708984,2.2832031 0.779844,0.8554999 1.435774,1.803713 1.96289,2.8359375 0.527119,1.0322245 0.926199,2.1492027 1.19336,3.3437497 0.267161,1.194547 0.402367,2.466124 0.402344,3.808593 0,1.806677 -0.363402,3.765127 -0.935547,5.730469 -0.572145,1.965342 -1.352441,3.93819 -2.189453,5.771484 -1.674026,3.66659 -3.571102,6.777752 -4.460938,8.171875 -2.031746,3.183173 -4.2502,6.079876 -6.246094,8.15625 -1.271042,1.322188 -2.413501,2.291486 -3.46289,2.929688 -0.319034,0.194026 -0.618451,0.306539 -0.910156,0.390625 -0.291517,-0.08404 -0.58956,-0.196919 -0.908204,-0.390625 C 21.75288,46.074675 20.611025,45.105344 19.339844,43.783202 17.343857,41.706735 15.125497,38.810034 13.09375,35.626952 12.203914,34.232783 10.306838,31.121654 8.632812,27.455077 7.7958,25.621789 7.015504,23.648927 6.443359,21.683593 5.871215,19.718259 5.507813,17.759801 5.507812,15.953124 c 0,-1.342492 0.134981,-2.614034 0.402344,-3.808593 C 6.177519,10.949972 6.578102,9.8330059 7.105469,8.8007813 7.632836,7.7685567 8.288347,6.8203323 9.068359,5.9648438 9.848371,5.1093553 10.752046,4.3459917 11.777344,3.6816407 12.630681,3.1287274 13.5635,2.6445648 14.574219,2.2285157 15.584938,1.8124665 16.673873,1.4638225 17.837891,1.1855469 19.59357,0.76582588 21.60043,0.57901365 23.712891,0.49414062 Z"
     style="opacity:0.2;fill:#000000;stroke-width:0.0924025" /></g></svg>

<svg xmlns="http://www.w3.org/2000/svg" xmlns:xlink="http://www.w3.org/1999/xlink" width="48" height="48"><defs><linearGradient id="a"><stop offset="0"/><stop offset="1" stop-opacity="0"/></linearGradient><linearGradient xlink:href="#a" id="b" gradientUnits="userSpaceOnUse" x1="17.41" y1="8.81" x2="43.06" y2="34.6"/></defs><path d="M23.71.5C17.88.5 13.2 1.6 9.78 3.82 5.68 6.48 3.5 10.73 3.5 16.1c0 7.22 5.8 16.88 7.58 19.67a54.48 54.48 0 0 0 6.25 8.16c2.54 2.64 4.57 3.87 6.37 3.87 1.8 0 3.83-1.23 6.37-3.87 2-2.08 4.22-4.98 6.25-8.16 1.78-2.79 7.59-12.45 7.59-19.67 0-5.37-2.17-9.62-6.27-12.27C34.24 1.6 29.55.49 23.7.49z" fill="#3d4970"/><path d="M29.26 44.63c.29-.28.52-.39.82-.7 2-2.08 4.22-4.98 6.25-8.16.89-1.4 2.79-4.5 4.46-8.17.38-.82.64-1.72.98-2.58l-18-18-.71 15.94-6.87 6.69 6.26 6.26-.46 1.45z" fill="url(#b)" opacity=".6"/><path d="M21.99 5.36v12l-5-5-2 2 7 7-7 7 2 2 5-5v12l10-10-6-6 6-6-10-10zm3 7l3 3-3 3v-6zm0 12l3 3-3 3v-6z" fill="#fff"/><path d="M23.71.35C17.88.35 13.2 1.47 9.78 3.68c-4.1 2.66-6.27 6.9-6.27 12.27 0 7.23 5.8 16.89 7.58 19.68a54.48 54.48 0 0 0 6.25 8.15c2.54 2.65 4.57 3.88 6.37 3.88 1.8 0 3.83-1.23 6.37-3.88 2-2.07 4.22-4.97 6.25-8.15 1.78-2.8 7.59-12.45 7.59-19.68 0-5.37-2.17-9.61-6.27-12.27C34.24 1.47 29.55.35 23.7.35zm0 .14c2.12.09 4.12.28 5.88.7 1.16.27 2.25.62 3.26 1.04 1.01.41 1.95.9 2.8 1.45a12.92 12.92 0 0 1 4.67 5.12c.53 1.03.93 2.15 1.2 3.34.26 1.2.4 2.47.4 3.81 0 1.81-.37 3.77-.94 5.73a43.19 43.19 0 0 1-2.19 5.78 69.59 69.59 0 0 1-4.46 8.17 54.47 54.47 0 0 1-6.25 8.15 17.98 17.98 0 0 1-3.46 2.93c-.32.2-.62.3-.9.4-.3-.1-.6-.2-.92-.4-1.05-.64-2.19-1.6-3.46-2.93-2-2.07-4.21-4.97-6.25-8.15a69.6 69.6 0 0 1-4.46-8.17 43.19 43.19 0 0 1-2.19-5.78 20.93 20.93 0 0 1-.93-5.73c0-1.34.13-2.61.4-3.8.27-1.2.67-2.32 1.2-3.35a12.92 12.92 0 0 1 4.67-5.12 17.1 17.1 0 0 1 2.8-1.45c1-.42 2.1-.77 3.26-1.04C19.59.77 21.6.58 23.7.49z" opacity=".2"/></svg>
